X:29
T:Dennis of Galway
R:jig
D:"Chasing the bear" by Jon Hicks
Z:Transcribed by Lionel Gueganton
L:1/8
M:6/8
K:C
|: D2D DEF     | AGF GFG | ADD DEF  | _B,EG FEC    | 
   D2D/D/ DEF  | AGF GFG | Adc AGF  | F/E/DC D2D, :|
|: [dd]cA d2e  | fed ddc | dcA d2e  | fed cdg      |
   dcA [_BD]de | fed ddc | edc Bd^f | edc Bd^f    :|

